src/components/Icon/assets/channel-smile-filled.svg

<svg width="24" height="24" viewBox="0 0 24 24" fill="none" xmlns="http://www.w3.org/2000/svg">
<path fill-rule="evenodd" clip-rule="evenodd" d="M15.2135 10.8077C14.3685 10.8077 14.0145 10.1967 14.0145 8.7027C14.0145 7.2077 14.3685 6.5977 15.2135 6.5977C16.0585 6.5977 16.4115 7.2077 16.4115 8.7027C16.4115 10.1967 16.0585 10.8077 15.2135 10.8077V10.8077ZM12.0005 13.6107C10.8625 13.6107 9.9175 12.7927 9.7195 11.7127C9.6795 11.4957 9.8445 11.2927 10.0655 11.2927H13.9345C14.1545 11.2927 14.3205 11.4957 14.2805 11.7127C14.0825 12.7927 13.1365 13.6107 12.0005 13.6107V13.6107ZM8.7865 10.8077C7.9415 10.8077 7.5885 10.1967 7.5885 8.7027C7.5885 7.2077 7.9415 6.5977 8.7865 6.5977C9.6315 6.5977 9.9845 7.2077 9.9845 8.7027C9.9845 10.1967 9.6315 10.8077 8.7865 10.8077V10.8077ZM20.7295 18.1877C20.5645 17.6917 20.5825 17.1417 20.8285 16.6807C21.8665 14.7327 22.2875 12.4067 21.7935 9.95271C20.9885 5.95171 17.6995 2.78671 13.6705 2.13571C6.8435 1.03071 1.0295 6.84571 2.1355 13.6727C2.7885 17.7007 5.9525 20.9897 9.9535 21.7937C12.4085 22.2877 14.7355 21.8667 16.6845 20.8267C17.1435 20.5817 17.6865 20.5617 18.1805 20.7267C18.7175 20.9057 19.4355 21.1447 20.1035 21.3677C20.8855 21.6287 21.6285 20.8847 21.3675 20.1027L20.7295 18.1877Z" fill="#65676A"/>
</svg>

<svg xmlns="http://www.w3.org/2000/svg" width="24" height="24" viewBox="0 0 24 24">
    <path fill="#65676A" fill-rule="evenodd" d="M15.213 10.808c-.845 0-1.198-.611-1.198-2.105 0-1.495.353-2.105 1.198-2.105s1.199.61 1.199 2.105c0 1.494-.354 2.105-1.198 2.105zm-3.212 2.803c-1.138 0-2.083-.818-2.281-1.898-.04-.217.124-.42.345-.42h3.87c.22 0 .385.203.345.42-.197 1.08-1.143 1.898-2.28 1.898zm-3.214-2.803c-.846 0-1.199-.611-1.199-2.105 0-1.495.353-2.105 1.199-2.105.845 0 1.197.61 1.197 2.105 0 1.494-.352 2.105-1.197 2.105zm11.943 7.38c-.166-.496-.148-1.046.098-1.507 1.038-1.948 1.46-4.274.966-6.728-.806-4.001-4.095-7.166-8.123-7.817C6.844 1.03 1.03 6.846 2.136 13.673c.652 4.028 3.816 7.317 7.817 8.12 2.456.495 4.783.074 6.732-.966.459-.245 1.002-.265 1.495-.1l1.924.64c.782.262 1.524-.482 1.264-1.264l-.638-1.915z"/>
</svg>
